64x64/apps/security-low.svg

<svg xmlns="http://www.w3.org/2000/svg" width="64" height="64" version="1">
 <path style="opacity:0.2" d="m 10.057688,15.172496 c -0.01714,0.06295 -0.058595,0.116059 -0.058595,0.183602 0,7.708853 2.008814,16.620115 5.511838,24.44817 2.84142,6.350844 7.951856,14.821103 16.156113,19.113732 0.104,0.054 0.218001,0.082 0.332002,0.082 0.114141,0 0.227622,-0.02748 0.332042,-0.08204 8.204457,-4.292029 13.314893,-12.762488 16.156113,-19.113732 3.502824,-7.829255 5.511838,-16.741117 5.511838,-24.44817 0,-0.06754 -0.04144,-0.120645 -0.0586,-0.183602 -0.284001,7.272051 -2.222015,15.408107 -5.454037,22.634158 -2.84162,6.350844 -7.952056,14.821103 -16.156113,19.113733 -0.10442,0.05456 -0.217901,0.08204 -0.332042,0.08204 -0.114141,0 -0.227622,-0.02748 -0.332042,-0.08204 C 23.462147,52.626317 18.351911,44.156258 15.509891,37.806214 12.277669,30.582163 10.340655,22.444107 10.057053,15.174056 Z"/>
 <path style="fill:#f44336" d="M 53.51539,13.659478 32.241242,6.042025 c -0.156261,-0.056034 -0.326763,-0.056034 -0.483004,0 L 10.48409,13.659478 c -0.290302,0.103959 -0.4846029,0.382663 -0.4846029,0.695265 0,7.708853 2.0090139,16.620115 5.5120379,24.44817 2.84142,6.350844 7.951056,14.822503 16.156113,19.113733 0.10442,0.05456 0.218421,0.08184 0.332562,0.08184 0.114141,0 0.228142,-0.02728 0.332562,-0.08184 8.204457,-4.29203 13.314093,-12.763489 16.156113,-19.113733 3.502824,-7.829255 5.512038,-16.741117 5.512038,-24.44817 0,-0.312622 -0.194301,-0.591304 -0.484603,-0.695265 z"/>
 <path style="opacity:0.2" d="M 43.735322,23.126152 32.131441,19.024523 c -0.08524,-0.03017 -0.178221,-0.03017 -0.263462,0 l -11.603881,4.101629 c -0.158341,0.05598 -0.264321,0.206041 -0.264321,0.374382 0,4.150829 1.095827,8.949262 3.00662,13.164692 1.549871,3.419624 4.337031,7.981255 8.812462,10.291871 0.05696,0.02938 0.119141,0.04406 0.181401,0.04406 0.06226,0 0.124441,-0.0146 0.181401,-0.04406 4.475231,-2.311016 7.262251,-6.872647 8.812462,-10.291871 1.910693,-4.21563 3.00642,-9.014263 3.00642,-13.164692 0,-0.168321 -0.10598,-0.318402 -0.264321,-0.374382 z"/>
 <path style="fill:#f4f4f7" d="M 43.735322,22.124137 32.131241,18.022708 c -0.08524,-0.03017 -0.178221,-0.03017 -0.263462,0 l -11.603881,4.101629 c -0.158341,0.05598 -0.264321,0.206041 -0.264321,0.374382 0,4.150829 1.095827,8.949263 3.00662,13.164692 1.549871,3.419624 4.337031,7.981255 8.812462,10.291871 0.05696,0.02938 0.119141,0.04406 0.181401,0.04406 0.06226,0 0.124441,-0.0146 0.181401,-0.04406 4.475231,-2.311016 7.262251,-6.872647 8.812462,-10.291871 1.910693,-4.215629 3.00642,-9.014263 3.00642,-13.164692 0,-0.168321 -0.10598,-0.318402 -0.264321,-0.374382 z"/>
 <path style="opacity:0.2;fill:#f4f4f7" d="M 32 6 C 31.917999 6 31.835813 6.0149687 31.757812 6.0429688 L 10.482422 13.660156 C 10.19242 13.764155 10 14.042867 10 14.355469 C 10 14.62428 10.017366 14.901795 10.027344 15.175781 C 10.085966 14.940464 10.249967 14.743518 10.482422 14.660156 L 31.757812 7.0429688 C 31.913813 6.9869687 32.086186 6.9869687 32.242188 7.0429688 L 53.515625 14.660156 C 53.750594 14.744421 53.915858 14.944871 53.972656 15.183594 C 53.982621 14.906972 54 14.626837 54 14.355469 C 54 14.042867 53.805627 13.764157 53.515625 13.660156 L 32.242188 6.0429688 C 32.164187 6.0149687 32.082001 6 32 6 z"/>
</svg>

<svg xmlns="http://www.w3.org/2000/svg" width="64" height="64" version="1"><path style="opacity:.2" d="M10.058 15.172c-.017.063-.059.117-.059.184 0 7.709 2.009 16.62 5.512 24.448 2.841 6.351 7.952 14.821 16.156 19.114a.721.721 0 0 0 .664 0c8.205-4.292 13.315-12.763 16.156-19.114C51.99 31.975 54 23.064 54 15.356c0-.067-.041-.12-.059-.184-.284 7.273-2.222 15.409-5.454 22.635-2.841 6.35-7.952 14.82-16.156 19.113a.715.715 0 0 1-.664 0c-8.204-4.294-13.314-12.764-16.156-19.114-3.232-7.224-5.17-15.362-5.453-22.632z"/><path style="fill:#f44336" d="M53.515 13.66 32.241 6.041a.715.715 0 0 0-.483 0l-21.274 7.617a.737.737 0 0 0-.485.696c0 7.709 2.01 16.62 5.513 24.448 2.84 6.35 7.95 14.822 16.156 19.114a.717.717 0 0 0 .665 0c8.204-4.292 13.314-12.764 16.156-19.114C51.992 30.973 54 22.062 54 14.355a.737.737 0 0 0-.485-.696z"/><path style="opacity:.2" d="m43.735 23.126-11.604-4.101a.395.395 0 0 0-.263 0l-11.604 4.101a.397.397 0 0 0-.264.375c0 4.15 1.096 8.949 3.006 13.164 1.55 3.42 4.337 7.981 8.813 10.292a.395.395 0 0 0 .363 0c4.475-2.31 7.262-6.873 8.812-10.292 1.91-4.215 3.007-9.014 3.007-13.164a.397.397 0 0 0-.265-.375z"/><path style="fill:#f4f4f7" d="m43.735 22.124-11.604-4.101a.395.395 0 0 0-.263 0l-11.604 4.101A.397.397 0 0 0 20 22.5c0 4.15 1.095 8.949 3.006 13.164 1.55 3.42 4.337 7.982 8.813 10.292a.395.395 0 0 0 .362 0c4.476-2.31 7.263-6.872 8.813-10.292C42.904 31.448 44 26.65 44 22.5a.397.397 0 0 0-.264-.375z"/><path style="opacity:.2;fill:#f4f4f7" d="M32 6a.719.719 0 0 0-.242.043L10.482 13.66a.735.735 0 0 0-.482.695c0 .27.017.547.027.82a.726.726 0 0 1 .455-.515l21.276-7.617a.72.72 0 0 1 .484 0l21.274 7.617c.235.084.4.285.457.524.01-.277.027-.557.027-.829a.737.737 0 0 0-.484-.695L32.242 6.043A.719.719 0 0 0 32 6z"/></svg>
